X:1
T:- # -
%%score [ 1 2 3 4 ]
L:1/8
M:4/4
K:F
V:1 treble nm="Sopran" snm=" "
V:2 treble-8 nm="Alt"
V:3 treble-8 nm="Tenor"
V:4 bass nm="Baß"
V:1
"^Christobal de Morales" z8 | z8 | z4 A4 |"^XV.  Inter natos mulierum" A2 A4 A2 |"^5" G2 F2 G4 | %5
w: ||In-|ter na- tos|mu- li- e-|
"^1546" D8 | z8 | z8 | A4 A2 A2- |"^10" A2 A2 G2 E2 | F3 E FG A2- | ABcA B2 A2- | AG G2 A4- | %13
w: rum,|||in- ter na-|* tos mu- li-|e- * * * *||* * * rum|
 A4 z4 |"^15" z4 z2 F2- | F2 C2 D2 A,2 | B,3 C DEFD | E2 D4 CB, | C4 z4 |"^20" z2 F4 C2 | %20
w: |non|* sur- re- xit|ma * * * * *||~ior,|non sur-|
 D2 A,2 B,3 C | DEFD E2 D2- | DC C2 D4 | F4 F4- |"^25" F4 E4 | D2 F2 E2 D2- | D2 ^C=B, C4 | z8 | %28
w: re- xit ma- *||* * * ~ior|Io- han-|* ne|Bap- ti- * *|* * * sta,||
 z2 E2 F3 E |"^30" F2 G2 A4 | z2 D4 G2- | G2 F2 G2 A2 | F2 B4 A2 | GF F4 E2 |"^35" F4 z4 | z8 | %36
w: qui vi- am|do- mi~- ~ni,|qui vi-|* am do *||* * * mi-|~ni,||
 z2 E2 F3 E | F2 G2 A4- | A4 z4 |"^40" z2 D4 G2 | F2 D2 F3 G | AB c3 B A2- | A2 G2 A4- | A2 GF E4 | %44
w: qui vi- am|do- mi- ni||prae- pa-|ra- vit ~in *|* * * * he-|* re~- ~mo,||
"^45" z8 | z2 E4 A2 | G2 E2 F2 D2 | F2 G2 A4 | z2 D4 G2 |"^50" F2 D2 F4- | F2 ED E2 F2 | %51
w: |prae- pa-|ra- vit in he-|* re- mo,|prae- pa-|\-ra- vit in|* * * * he-|
 E3 D E2 F2- | FE D4 ^C2 | D8 |[M:4/4]"^Secunda pars" A6 G2 | A4 D2 A2 | B2 A3 GAF | B2 AG F4 | %58
w: re * * *||~mo.|Fu- it|ho- mo mis-|sus a * * *|de * * *|
 E4 F2 G2 |"^60" E4 D4 | z4 A4 | G2 A2 D2 F2 | E2 D2 G3 F | E4 F4 |"^65" z4 z2 A2- | A2 G2 A4 | %66
w: |* ~o,|fu-|it ho- mo mis-|sus a de *|* ~o,|fu-|* it ho-|
 D3 E FG A2- | AG F3 E C2 | D4 C2 c2 |"^70" A2 (B4 AG) | (F2 G2) B2 A2- | AG G2 A4 | z2 A3 A A2 | %73
w: ||* mo mis-|sus a * *|* de- * *|* * * ~o,|cu- i no-|
 G2 E2 F3 E |"^75" FGAF B2 A2- | AGFE F4 | E4 z4 | z2 C3 C C2 | A,B,CD EFGE |"^80" F2 ED C2 E2 | %80
w: men e- rat *|* * * * Io- han-||~nes,|cu- i no-|men * * * * * * *|e- * * rat Io-|
 D2 F2 ED E2- | ED D4 ^C2 | D8 | z4 z2 F2- |"^85" FF F2 E2 E2 | D2 F2 E2 D2- | D2 ^C=B, C4 | z8 | %88
w: han- * * * *||~nes,|cu-|* i no- men e-|rat Io- han *|* * * ~nes,||
 z2 E2 F3 E |"^90" F2 G2 A4 | z2 D4 G2- | G2 F2 G2 A2 | F2 B4 A2 | GF F4 E2 |"^95" F4 z4 | z8 | %96
w: qui vi- am|do- mi- ~ni,|qui vi-|* am do- *||* * * mi-|\-ni,||
 z2 E2 F3 E | F2 G2 A4- | A4 z4 |"^100" z2 D4 G2 | F2 D2 F3 G | AB c3 B A2- | A2 G2 A4- | %103
w: qui vi- am|do- mi- ni||prae- pa-|ra- vit in *|* * * * he-|* re- mo,|
 A2 GF E4 |"^105" z8 | z2 E4 A2 | G2 E2 F2 D2 | F2 G2 A4 | z2 D4 G2 |"^110" F2 D2 F4- | %110
w: ||prae- pa-|ra- vit in he-|* re- mo,|prae- pa-|\-ra- vit in|
 F2 ED E2 F2 | E3 D E2 F2- | FE D4 ^C2 | D8 |] %114
w: * * * * he-|re- * * *||~mo.|
V:2
 z8 | z8 | d4 d2 d2- | d2 d2 c2 A2 | B2 d3 c B2 | A4 z2 A2 | A2 A4 A2 | G2 FE F2 B2 | A2 FG ABcd | %9
w: ||In- ter na-|* tos mu- li-|e * * *|rum, in-|\-ter na- tos|mu- li- * e- *||
w: |||||||||
 e2 d3 c c2 | d4 z2 f2- | f2 c2 d2 A2 | B4 A4- | A4 z2 e2 | d2 f3 e d2 | c3 A B2 A2- | %16
w: |rum non|* sur- re- xit|ma- ior,|* non|sur- re- * *|* xit ma *|
w: |||||||
 A2 GF G2 A2 | B2 A2 G2 A2- | A2 G2 F2 E2 | D2 d2 c2 A2 | B2 A4 GF | G2 A2 B2 A2 | G4 A4 | d4 d4- | %24
w: |ior, non sur- re-|* xit ma- *|~ior, non su- *|re- * * *|* * * xit|ma- ior|Io- han-|
w: ||||||||
 d4 c4 | A4 B4 | A8 | z2 A4 d2- | d2 c2 d4 | B4 A4 | z4 z2 G2 | B3 A B2 c2 | d6 c2 | BAGF G4 | %34
w: * ne|Bap- ti~-|sta,|qui vi-|* am do-|mi- ~ni,|qui|vi- am do- mi-|ni, *||
w: ||||||||||
 z2 A2 B3 A | B2 c2 d4 | z2 c2 d3 c | d2 B2 AGFE | D3 E F2 G2- | G2 F2 G4 | z2 A4 d2 | %41
w: |||||* mi- ni|prae- pa-|
w: qui vi- am|do- mi~- ~ni,|qui vi- am|do * * * * *||||
 c2 A2 c2 d2 | B4 A4 | z8 | z2 A4 d2 | c3 A c2 d2- | dc c2 d4- | d4 z2 A2- | A2 d2 B2 c2 | %49
w: ra- vit in he-|re- ~mo,||prae- pa-|ra- vit in he-|* * re- mo,|~ prae-|* pa- ra *|
w: ||||||||
 d4 DEFG | AB c4 B2 | c6 A2- | AG G2 A4- | A8 |[M:4/4] z8 | z4 d4- | d2 c2 d4 | G2 d3 cdB | %58
w: \-vit in * * *|* * * he-|re- *|* * * ~~mo.|||Fu-|* it ho-|mo mis- * * *|
w: |||||||||
 c2 AB cA d2- | dc c2 d2 f2- | fd e2 d4- | d4 z4 | z4 d4- | d2 c2 d4 | A2 c2 B2 A2 | B4 A2 d2- | %66
w: * * * * sus a|* * * de- *|* * * o,||fu-|* it ho-|mo mis- sus a|de- * *|
w: ||||||||
 dc B2 A4 | D4 z2 A2- | A2 G2 A4 | D2 d4 c2 | d2 G2 d4- | d2 e2 f3 e | c2 f3 e d2- | d2 c2 d4 | %74
w: |~o, fu-|* it ho-|~mo, fu- it|ho- mo mis-|* sus a *|* de- * *|* * o,|
w: ||||||||
 z2 d3 d d2 | c2 A4 B2 | c4 BAGF | G4 A4- | A4 z4 | z2 c3 c c2 | B2 A2 B3 B | B2 G2 z2 A2- | %82
w: cu- i~ no-|\-men e- *|rat Io * * *|han- nes,||cu- i~ no-|men e- rat Io-|han- ~nes, cu-|
w: ||||||||
 AA A2 F2 f2 | e2 d4 c2 | d4 c4 | B2 A2 B4 | A8 | z2 A4 d2- | d2 c2 d4 | B4 A4 | z4 z2 G2 | %91
w: * i no- men e-|rat Io- *|\-han- *||~nes,|qui vi-|* am do-|\-mi- ~ni,|qui|
w: |||||||||
 B3 A B2 c2 | d6 c2 | BAGF G4 | z2 A2 B3 A | B2 c2 d4 | z2 c2 d3 c | d2 B2 AGFE | D3 E F2 G2- | %99
w: vi- am do- mi-|ni, *||qui vi- am|do- mi- ni,|qui vi- am|do- * * * * *||
w: ||||||||
 G2"^[  ]" ^F2 G4 | z2 A4 d2 | c2 A2 c2 d2 | B4 A4 | z8 | z2 A4 d2 | c2 A2 c2 d2- | dc c2 d4- | %107
w: * mi- ni|prae- pa-|ra- vit in he-|re- ~mo,||prae- pa-|ra- vit in he-|* * re- mo,|
w: ||||||||
 d4 z2 A2- | A2 d2 B2 c2 | d4 DEFG | AB c4 B2 | c4 c2 A2- | AG G2 A4- | A8 |] %114
w: * prae-|* pa- ra *|\-vit in * * *||he- re- *|* * * ~mo.||
w: |||||||
V:3
 A4 A2 A2- | A2 A2 G2 F2 | G4 D4 | z2 D2 F4 | G2 B3 A G2- | G2 FE F4- | F4 z4 | d4 d2 d2- | %8
w: In- ter na-|* tos mu- li-|e- ~rum,|mu- *|li- e- * *|* * * ~~rum,||in- ter na-|
w: ||||||||
 d2 d2 c3 B | A2 F2 G2 A2 | D8 | z4 z2 d2 | d2 d4 d2 | c2 A2 c4 | B2 AG F3 G | A4 z4 | z2 B4 F2 | %17
w: * tos mu- li-|e- * * *|~rum,|in-|ter na- tos|mu- li- e-|* * * ~- *|rum,|non sur-|
w: |||||||||
 G2 D2 E2 FG | ABcA B2 AG | F3 G A4 | z4 z2 B2- | B2 F2 G2 D2 | E4 D4 | A4 B4- | B4 G4- | %25
w: re- xit ma * *||* * ~ior,|non|* sur- re- xit|ma- ~ior|Io- han-|* ne|
w: ||||||||
 G2 F2 G4 | E4 z2 E2 | F3 E F2 G2 | A4 z4 | z4 z2 A2 | B3 A B2 c2 | d4 z2 A2 | B3 A B2 c2 | d6 cB | %34
w: * Bap- ti-|sta, qui|vi- am do- mi~-|~ni,|qui|vi- am do- mi~-|~ni, qui|vi- am do ~-||
w: |||||||||
 A3 G F2 E2 | FG A3 G G2 | A4 z4 | z8 | z2 A4 d2 | c2 A2 B4 | A3 G F2 D2 | F8 | z4 z2 A2- | %43
w: |* * * * mi-|ni||prae- pa-|ra- vit ~in|he * * ~re~-|~mo,|prae-|
w: |||||||||
 A2 d2 c2 A2 | c2 d2 DEFG | A6 F2 | G2 A2 DEFG | A2 B2 c2 d2 | c2 BA G4 | z2 A4 d2 | c3 B A2 F2 | %51
w: * pa- ra- vit|in he- re * * *||||* * * ~mo,|prae- pa-|ra- * * vit|
w: ||||||||
 G2 A2 G2 FE | D4 E4 | D8 |[M:4/4] z8 | z8 | z8 | z8 | A6 G2 | A4 D2 A2 | B2 A3 GAF | B2 AG A2 B2 | %62
w: in he * * *|re- *|~mo.|||||Fu- it|ho- mo mis-|\-sus a * * *|de * * * *|
w: |||||||||||
 G8 | A4 D4 | z8 | z8 | z2 d4 c2 | d4 A4 | D3 E F2 E2 | F2 G4 A2 | B4 G2 A2 | B2 c3 BAG | %72
w: ~-|* ~o,|||fu- it|ho- mo|mis * * sus|a de- *|||
w: ||||||||||
 A2 D2 F4 | G4 z2 A2- | AA A2 G2 D2 | F6 F2 | G2 A2 GF F2- | FE E2 F4 | z2 c3 c c2 | B2 G2 A2 G2- | %80
w: |~o, cu-|* i no- men e-|\-rat Io-|han * * * *|* * * ~nes,|cu- i no-|\-men e- rat Io-|
w: ||||||||
 G2 F2 G4- | G2 D2 E4 | D4 z2 A2- | AA A2 G2 A2 | B3 A GF G2- | G2 F2 G4 | E4 z2 E2 | F3 E F2 G2 | %88
w: * * han-||~nes, cu-|* * i no- men|e- * * * rat|* Io- han-|~nes, qui|vi- am do- mi-|
w: ||||||||
 A4 z4 | z4 z2 A2 | B3 A B2 c2 | d4 z2 A2 | B3 A B2 c2 | d6 cB | A3 G F2 E2 | FG A3 G G2 | A4 z4 | %97
w: ~ni,|qui|vi- am do- mi-|ni, qui|vi- am do- mi-|ni * *||||
w: |||||||||
 z8 | z2 A4 d2 | c2 A2 B4 | A3 G F2 D2 | F8 | z4 z2 A2- | A2 d2 c2 A2 | c2 d2 DEFG | A6 F2 | %106
w: ||\-ra- vit in|he- * * re-|~mo,|prae-|* pa- ra- vit|in he- re * * *||
w: |prae- pa-||||||||
 G2 A2 DEFG | A2 B2 c2 d2 | c2 BA G4 | z2 A4 d2 | c3 B A2 F2 | G2 A2 G2 FE | D4 E4 | D8 |] %114
w: ||* * * ~mo,|prae- pa-|ra- * * vit|in he * * *|re- *|~mo.|
w: ||||||||
V:4
 z8 | z8 | z8 | z8 | z8 | D,4 D,2 D,2- | D,2 D,2 C,2 A,,2 | B,,3 C, D,2 G,,2 | D,4 z4 | z8 | %10
w: |||||In- ter na-|* tos mu- li-|e- * * *|rum,||
 A,4 A,2 A,2- | A,2 A,2 G,2 F,2 | G,4 D,4 | z2 F,4 C,2 | D,2 A,,2 B,,4 | A,,4 z4 | z8 | %17
w: in- ter na-|* \-tos mu- li-|e- rum|non sur-|re- xit ma-|~ior,||
 z4 z2 F,2- | %18
w: non|
 F,2"^© Michael Wendel 2005\nThis edition may be freely duplicated, distributed, performed or recorded for non-profit performance or use.\n" C,2 D,2 A,,2 | %19
w: * sur- re- xit|
 B,,4 A,,4 | z8 | z8 | z8 | D,4 B,,4- | B,,4 C,4 | D,4 G,,4 | A,,4 z2 A,,2 | D,3 C, D,2 B,,2 | %28
w: ma- ior||||Io- han-|* ne|Bap- ti~-|sta, qui|vi- am do- mi~-|
 A,,4 z2 D,2- | D,2 G,4 F,2 | G,6 E,2 | D,4 z4 | z4 z2 A,,2 | B,,3 A,, B,,2 C,2 | D,6 C,2 | %35
w: ~ni, qui|* vi- am|do- mi-|ni|qui|vi- am do *||
 B,,2 A,,2 B,,4 | A,,4 z2 D,2- | D,2 G,2 F,2 D,2 | F,3 E, D,2 B,,2 | C,2 D,2 G,,4 | D,8 | %41
w: * * mi-|~ni, prae-|* pa- ra- vit|in * * he-|re- * *|~mo,|
 z4 z2 D,2- | D,2 G,2 F,2 D,2 | F,2 G,2 A,3 G, | F,E, D,3 C, B,,2 | A,,4 z4 | z4 z2 D,2- | %47
w: prae-|* pa- ra- vit|in he- re- *||~mo,|prae-|
 D,2 G,2 F,2 D,2 | F,2 G,3 F, E,2 | D,8 | z2 A,,4 D,2 | C,2 A,,2 C,2 D,2 | B,,4 A,,4 | D,8 | %54
w: * pa- ra- vit|in he- * re-|\-mo,|prae- pa-|ra- vit in he-|re- *|~mo.|
[M:4/4] z8 | z8 | z8 | z8 | z8 | z4 D,4- | D,2 C,2 D,4 | G,,2 D,3 C,D,B,, | C,2 B,,A,, G,,4 | %63
w: |||||Fu-|* it ho-|mo mis * * *|* * * sus,|
 z4 z2 D,2- | D,2 C,2 D,4 | G,,2 G,4 F,2 | G,4 D,2 F,2- | F,E, D,3 C, A,,2 | B,,4 A,,4 | z8 | %70
w: fu-|* it ho-|\-mo mis- *|||* sus,||
 z2 G,4 F,2 | G,2 C,2 F,4- | F,2 F,2 D,4 | E,4 D,4- | D,4 z4 | z2 D,3 D, D,2 | C,2 A,,2 B,,2 D,2 | %77
w: fu- it|ho- mo mis-|* sus a|de- o,||cu- i~ no-|men e- rat Io-|
 C,4 F,,2 F,2- | F,F, F,2 E,2 C,2 | D,2 E,2 F,2 C,2 | D,4 G,,4- | G,,2 B,,2 A,,4 | z2 D,3 D, D,2 | %83
w: han- ~nes, cu-|* i~ no- men e-|\-rat Io- han *||* * ~nes,|cu- i~ no-|
 C,2 D,2 E,2 F,2 | B,,4 C,4 | D,4 G,,4 | A,,4 z2 A,,2 | D,3 C, D,2 B,,2 | A,,4 z2 D,2- | %89
w: men e- rat Io-|\-han- *||nes, qui|vi- am do- mi-|~ni, qui|
 D,2 G,4 F,2 | G,6 E,2 | D,4 z4 | z4 z2 A,,2 | B,,3 A,, B,,2 C,2 | D,6 C,2 | B,,2 A,,2 B,,4 | %96
w: * vi- am|do- mi-|~ni,|qui|vi- am do *||* * mi-|
 A,,4 z2 D,2- | D,2 G,2 F,2 D,2 | F,3 E, D,2 B,,2 | C,2 D,2 G,,4 | D,8 | z4 z2 D,2- | %102
w: ni prae-|* pa- ra- vit|in * * he-|* * re-|~mo,|prae-|
 D,2 G,2 F,2 D,2 | F,2 G,2 A,3 G, | F,E, D,3 C, B,,2 | A,,4 z4 | z4 z2 D,2- | D,2 G,2 F,2 D,2 | %108
w: * pa- ra- vit|in he- re- *||~mo,|prae-|* pa- ra- vit|
 F,2 G,3 F, E,2 | D,8 | z2 A,,4 D,2 | C,2 A,,2 C,2 D,2 | B,,4 A,,4 | D,8 |] %114
w: in he- \- re-|\-mo,|prae- pa-|ra- vit in he-|re- *|~mo.|

